!!!!SEGMENT: pl-kozmzk--mzk-m-346--002_walczynski-franciszek--cantantibus-organis-allegro-moderato.krn
!!!cenid: 18xx:2797
!!!COM: Walczyński, Franciszek
!!!COM-rismid: pe30021989
!!!CDT: ~1852-1937
!!!CNT: Polish
!!!OTL: Cantantibus organis – Allegro moderato
!!!PDT: 1898
!!!AGN: Secular
!!!SMS-siglum: PL-KOZmzk
!!!SMS-shelfmark: mzk/m/346
!!!SMS-shelfwork: 002 G
!!!SMS-variant:
!!!SMS-altvar:
!!!NIFC-rismid: 1001109060
!!!URL-scan: https://repozytorium.nifc.pl/islandora/object/pl-kozmzk%3A7453/datastream/PDF/view
!!!ONB-nifc:
**kern	**kern	**dynam
*part1	*part1	*part1
*staff2	*staff1	*
*I"Organo	*I"Organo	*
*clefF4	*clefG2	*
*k[]	*k[]	*
*M2/4	*M2/4	*
=1	=1	=1
*^	*^	*
!	!	!	!	!LO:DY:b=2
2rd	8C\L	2rg	2r	f
.	16D\L	.	.	.
.	16E\JJ	.	.	.
.	8F\L	.	.	.
.	8A\J	.	.	.
=2	=2	=2	=2	=2
8G/L	8G\L	2rg	2r	.
16A/L	16F#X\L	.	.	.
16B/JJ	16Fn\JJ	.	.	.
8c/L	8E\L	.	.	.
8e/J	8C\J	.	.	.
=3	=3	=3	=3	=3
4d/	((4BB\	(8g/L	4d\	p
.	.	8f/J	.	.
4G/	8C\L	4e/	[4c\	.
.	8BB-X\J	.	.	.
=4	=4	=4	=4	=4
8F/L	8AA\L	8f/L	2c\_	.
8G/J	8GG\J	8e/J	.	.
4A/	4FF\	8d/L	.	.
.	.	16e/L	.	.
.	.	16f/JJ	.	.
=5	=5	=5	=5	=5
[4.G/	2GG\)	4e/	4.c\]	.
.	.	4d/	.	.
16G/LL]	.	.	8B\	.
16F/JJ	.	.	.	.
=6	=6	=6	=6	=6
8E/	8C\)	8c/)	8c\L	.
8r	8ryy	8r	16d\L	.
.	.	.	16e\JJ	.
4r	4ryy	4r	8f\L	.
.	.	.	8a\J	.
=7	=7	=7	=7	=7
2rBB	2r	8g/L	8g\L	.
.	.	16a/L	16f#X\L	.
.	.	16b/JJ	16fn\JJ	.
.	.	8cc/L	8e\L	.
.	.	8ee/J	8c\J	.
=8	=8	=8	=8	=8
(4B/	2r	(8gg/L	2g\	f
.	.	8ff/J	.	.
8c/L	.	8ee/L	.	.
16d/L	.	16dd/L	.	.
16e/JJ	.	16cc/JJ	.	.
=9	=9	=9	=9	=9
!!LO:LB:g=original
!	!LO:TX:b:i:t=Ped.	!	!	!
4f/	4F\	4dd/	4a\	.
8e/L	8G\L	8cc/L	4g\	.
8d/J)	8GG\J	8b/J)	.	.
=10	=10	=10	=10	=10
[2c/	(8C\L	[2cc/	(8e\L	p
.	16D\L	.	16f\L	.
.	16E\JJ	.	16g\JJ	.
.	8F\L	.	8a\L	.
.	8A\J	.	8cc\J	.
=11	=11	=11	=11	=11
2c/_	8G\L	2cc/_	8b\L	.
.	8F\	.	8a\	.
.	8E\	.	8g\	.
.	8D\J)	.	8f\J)	.
=12	=12	=12	=12	=12
2c/]	(8C\L	(2cc/_	4e\	.
.	8BB-X\	.	.	.
.	8AA\	.	4f\	.
.	8AA-X\J	.	.	.
=13	=13	=13	=13	=13
(4e/	2GG\)	4.cc/]	(4g\	.
4d/	.	.	4f\	.
.	.	8b/	.	.
=14	=14	=14	=14	=14
!	!	!	!	!LO:DY:b=2
4c/)	8CC\L 8C	4cc/)	4e\)	ff
.	16DD\L 16D	.	.	.
.	16EE\JJ 16E	.	.	.
4r	8FF\L 8F	4rg	4rff	.
.	8AA\J 8A	.	.	.
*v	*v	*	*	*
*	*v	*v	*
=15	=15	=15
4.GG/ 4.G	8r	ff
.	4g^\ 4b 4dd	.
8FF/ 8F	8g\ 8b 8dd	.
=16	=16	=16
*	*^	*
4.EE^/ 4.E	4.cc^/ 4.gg	4.g\	.
8FF/ 8F	8dd/ 8ff	8a\	.
=17	=17	=17	=17
4GG^/ 4G	4cc^/ 4ee	[4g\	.
4GG^/ 4G	4b^/ 4dd	8g\L]	.
.	.	8f\J	.
*	*v	*v	*
=18	=18	=18
2CC;</ 2C	2c;/ 2e 2g 2cc	.
==	==	==
*-	*-	*-
!!!system-decoration: {(s1,s2)}
!!!RDF**kern: > = above
!!!RDF**kern: < = below
!!!ENC: Kamil Watkowski
!!!END: 2021-08-09
